icons/svg/format-align-left.svg

<svg xmlns="http://www.w3.org/2000/svg" version="1.1" baseProfile="full" width="24" height="24" viewBox="0 0 24.00 24.00" xml:space="preserve"><path fill="#000" fill-opacity="1" stroke-linejoin="round" d="M3 3h18v2H3V3zm0 4h12v2H3V7zm0 4h18v2H3v-2zm0 4h12v2H3v-2zm0 4h18v2H3v-2z"/></svg>

﻿<?xml version="1.0" encoding="utf-8"?>
<!DOCTYPE svg PUBLIC "-//W3C//DTD SVG 1.1//EN" "http://www.w3.org/Graphics/SVG/1.1/DTD/svg11.dtd">
<svg xmlns="http://www.w3.org/2000/svg" xmlns:xlink="http://www.w3.org/1999/xlink" version="1.1" baseProfile="full" width="24" height="24" viewBox="0 0 24.00 24.00" enable-background="new 0 0 24.00 24.00" xml:space="preserve">
	<path fill="#000000" fill-opacity="1" stroke-linejoin="round" d="M 3,3L 21,3L 21,5L 3,5L 3,3 Z M 3,7.00001L 15,7.00001L 15,9L 3,9L 3,7.00001 Z M 3,11L 21,11L 21,13L 3,13L 3,11 Z M 3,15L 15,15L 15,17L 3,17L 3,15 Z M 3,19L 21,19L 21,21L 3,21L 3,19 Z "/>
</svg>
